X: 96
T:Giga
T:John Malchair's Third Collection of Tunes
%%VWML:Malchair-3619-p96
F:https://www.vwml.org/record/Malchair/3619/p96
F:www.vwml.org/topics/historic-dance-and-tune-books/Malchair
Z:Peter Kanssen March 2020
M:6/8
L:1/8
K:G
GBd dBd | dBd dBd | dgb dcB | cAA A3 | 
GBd dBd | dBd dBd | gbz Acz | BGG G3 ||
afd d^cd | afd d2=c | Bdg dcB | cAA A2c | 
B2d g2a | bag fed | gbz Acz | BGG G3 ||
W: 
T:La Rochelle
T:John Malchair's Third Collection of Tunes
F:https://www.vwml.org/record/Malchair/3619/p96
F:www.vwml.org/topics/historic-dance-and-tune-books/Malchair
M:2/4
L:1/8
K:D
a| affa | affa | bgec | d/c/d/e/ da |
affa | affa | bgec | d2d ||
cccc | dd de/f/ | gggg | f/e/f/g/ ff | 
cccc | dd def | gedc | d2d ||
W: 
T:Sweetest Lassie
T:John Malchair's Third Collection of Tunes
F:https://www.vwml.org/record/Malchair/3619/p96
F:www.vwml.org/topics/historic-dance-and-tune-books/Malchair
M:2/4
L:1/8
K:D
ff/d/ gg/e/ | afd2 | efgf | e/f/e/d/ {d}cB/A/ | 
ff/d/ gg/e/ | afdA | B/e/g/e/ dc | ddd2 ||
ee/c/ ff/d/ | ge e2 | ff/d/ gg/e/ | af f2 | 
ABcd | e/d/e/f/ ge | f/a/f/d/ e/g/e/c/ | dd d2 ||
